X: 23462
T: Letterkenny Blacksmith, The
R: reel
M: 4/4
K: Gmajor
|:G2 BG AGFD|GABG EA A2|G2 BG ABcd|edcA FDEF|
G2 BG AGFD|GABG EA A2|GABD EFGA|1 BdAc BG G2:|2 Bd Ac BGGA||
|:Bdgd Bdgd|^ceae ce a2|Bdgd Bdge|fdcA BGGA|
Bdgd Bdgd|^ceae ce a2|egfa gbag|1 fdcA BG G2:|2 fefd cAFA||

